X: 20594
Q: "With spirit."
M: 6/8
L: 1/8
K: G
d |\
b3 bag | gff f2d | a3 agf | fgg g2d |\
b3 bag | gff f2d | a3 agf | d3- "^D.C."d2 |]


